X: 1005
T: Allistrum's March
R: jig
M: 6/8
K: Dmixolydian
|:ABG AAG|A2 g fdc|ABG AAG|Agf d2z|
ABG AGF|G2 g fdc|B2B cBc|dgf d2c:|
|:Aff Agg|age fdc|Aff g2g|agf d2c|
Aff Agg|bag fde|f2 gfg|agf d2c:|
|:AGG cGG|AGg fdc|AGG cGG|Age d3|
AGG cGG|AGg fdc|AGG cGG|A2f e2d:|
|:A2G A2D|A2G A2D|ABG A2D|ABG A2z:|
|:AGG cGG|AGg fdc|AGG cGG|Age d3:|

